src/topics/icons/tomcat.svg

<svg height="182" preserveAspectRatio="xMidYMid" viewBox="0 0 256 182" width="256" xmlns="http://www.w3.org/2000/svg"><path d="m44.298 119.344c2.912 3.592 6.149 7.232 9.712 10.892-10.372 3.121-17.171 8.916-21.413 14.033-6.71 8.099-10.262 18.795-9.445 27.975h-17.861c3.582-7.773 17.88-30.229 39.007-52.9" fill="#d1a41a"/><path d="m251.194 177.115h-21.717c-49.82-25.997-93.559-44.329-140.024-48.334.099-6.466 1.25-13.786 3.464-21.944l-4.28-1.151c-2.273 8.383-3.464 15.97-3.602 22.76-4.841-.325-9.712-.482-14.632-.482-4.163 0-7.961.384-11.424 1.053-4.517-4.507-8.364-8.817-11.631-12.9 21.431-22.318 56.728-42.51 87.448-50.106 8.65 28.752 27.218 48.452 49.751 61.707 1.653-.945 3.277-1.929 4.871-2.971l39.311 42.321 1.722-.148c10.735-.924 16.836 4.901 18.451 6.711 1.19 1.319 1.898 2.53 2.292 3.484" fill="#d1a41a"/><path d="m232.016 35.556c.797 39.055-19.129 70.14-47.026 86.081-47.35-23.586-56.265-83.355-48.196-115.414 2.243 12.261 6.327 19.946 15.144 23.715 19.227-5.501 45.687-5.935 65.18-.561 8.118-5.904 11.267-14.927 12.989-22.809 2.145 9.17 1.899 28.988 1.909 28.988" fill="#ffdc76"/><path d="m168.22 40.776c1.637 0 2.785.665 3.615 2.087 1.945 3.346 1.626 9.946.013 16.851h-13.096v2.869h12.359c-1.326 4.711-3.189 9.372-5.286 13.065l-.678 1.194 16.386 10.314-9.225 6.079 1.579 2.397 10.311-6.798 11.131 7.264 1.529-2.428-10.321-6.385s15.431-10.023 16.198-10.513c-.005-.006-.008-.012-.012-.018l.018-.003c-3.401-5.014-4.479-9.295-3.063-14.168h1.158l12.444-.014.029-2.855h-12.539c2.31-5.436 5.544-10.33 17.088-10.33v-2.869c-10.651 0-17.026 4.229-20.079 13.199h-22.981c1.607-7.171 1.886-14.22-.486-18.295-1.335-2.296-3.443-3.513-6.092-3.513-9.493 0-13.241 9.701-13.395 10.114l2.686 1.008c.134-.351 3.229-8.252 10.709-8.252zm15.944 44.646-12.12-7.631 23.686.006zm12.595-22.839c-1.019 3.248-.61 8.141 1.898 12.34h-29.2c1.776-3.559 3.423-7.897 4.627-12.34z"/><path d="m157.512 49.028h-.001l-.001.002z"/><path d="m252.205 170.602c-4.863-5.44-14.389-8.015-22.344-7.824-5.071-6.036-31.977-34.441-37.409-40.169 11.231-7.882 20.985-18.122 28.463-30.284h14.847v-3.187h-12.968c.828-1.461 1.617-2.953 2.38-4.465h10.588v-3.188h-9.046c6.72-14.513 10.439-31.175 10.078-49.411.013.008.026.014.038.021-.019-4.989-1.572-26.076-4.428-31.882-7.744 2.943-21.835 12.477-25.024 22.227-15.284-2.282-32.514-2.012-47.607.6-2.522-10.49-15.178-18.518-24.726-23.04-4.027 6.796-5.811 22.553-5.358 33.731-.017.011-.035.023-.053.035.381 10.099 1.752 19.373 3.959 27.894-33.02 8.182-68.969 29.813-89.078 50.718-9.412-12.703-13.146-23.128-14.255-31.028-1.401-9.977.981-19.13 6.887-26.469 9.247-11.487 22.385-12.296 35.894-10.024-.264 2.133.016 4.172.871 5.434 3.572 5.276 22.773 7.13 34.234 2.017-8.458-11.852-25.59-17.639-30.337-15.32-1.572.767-2.759 2.178-3.572 3.823-4.669-.835-9.306-1.457-12.696-1.432-11.914.088-21.022 4.251-27.843 12.726-6.693 8.315-9.398 18.641-7.823 29.861 1.492 10.627 6.753 21.93 15.572 33.652-1.465 1.571-2.881 3.123-4.244 4.647-21.494 24.05-37.205 49.84-37.205 54.113v2.214h28.355l-.497-2.625c-1.601-8.463 1.597-19.041 8.147-26.947 4.112-4.963 10.922-10.628 21.616-13.242 9.509 9.28 21.623 19.136 35.108 28.644h21.071v-2.214c0-2.498-1.238-4.685-3.488-6.157-3.329-2.176-8.467-2.476-13.187-.866-4.5-5.012-7.023-11.707-7.568-20.022 45.731 4.05 89.472 22.517 138.828 48.3h27.156l.356-1.78c.507-2.534-.874-5.929-3.692-9.081zm-115.412-164.452c2.247 12.256 6.322 19.942 15.148 23.713 7.814-2.236 16.829-3.62 26.081-4.131l7.674 16.831 4.92-16.977c9.349.303 18.51 1.514 26.496 3.717 8.123-5.906 11.273-14.927 12.993-22.809 2.149 9.172 1.901 28.984 1.907 28.988.151 7.398-.444 14.508-1.694 21.285l-8.765 3.725 7.724 1.17c-.614 2.597-1.317 5.144-2.123 7.631l-7.474 2.17 5.955 2.144c-1.018 2.698-2.138 5.329-3.372 7.878h-12.325v3.188h10.704c-.808 1.519-1.658 3.005-2.54 4.465h-8.164v3.187h6.159c-8.103 12.271-18.833 22.222-31.11 29.238-14.189-7.07-24.923-17.39-32.787-29.238h4.705v-3.187h-6.732c-.892-1.469-1.743-2.958-2.553-4.465h9.285v-3.188h-10.93c-1.882-3.814-3.515-7.721-4.917-11.674l5.569-1.559-7.022-2.808c-.71-2.291-1.347-4.591-1.912-6.892l10.807-.737-12.358-6.557c-3.029-16.701-2.421-32.91.651-45.108zm-104.197 138.045c-6.707 8.095-10.262 18.788-9.448 27.969h-17.862c3.589-7.767 17.885-30.22 39.009-52.9 2.911 3.598 6.153 7.232 9.714 10.896-10.371 3.118-17.171 8.915-21.413 14.035zm196.875 32.84c-49.815-25.993-93.557-44.323-140.021-48.327.101-6.466 1.253-13.785 3.461-21.942l-4.273-1.158c-2.271 8.385-3.467 15.977-3.602 22.763-4.842-.321-9.715-.487-14.63-.487-4.169 0-7.966.387-11.429 1.06-4.516-4.514-8.364-8.816-11.633-12.899 5.815-6.058 12.657-11.955 20.144-17.489l10.368 7.159-3.385-12.09c3.152-2.126 6.392-4.181 9.695-6.155l15.365 7.808-7.215-12.439c2.103-1.136 4.223-2.236 6.354-3.296l21.465 14.398-7.049-20.888c7.327-2.953 14.635-5.368 21.703-7.116 1.661 5.512 3.693 10.683 6.04 15.548h-9.749v3.188h11.356c.799 1.519 1.625 3.01 2.488 4.465h-13.844v3.187h15.818c9.701 15.058 22.809 26.588 37.645 35.315 1.651-.943 3.271-1.944 4.869-2.982l3.888 4.186-6.534 10.052 11.145-5.088 6.452 6.946-10.907 8.311 15.019-3.884 20.257 21.808 1.715-.147c10.738-.919 16.841 4.904 18.457 6.711 1.185 1.325 1.9 2.534 2.289 3.482z"/></svg>

<?xml version="1.0" encoding="UTF-8" standalone="no"?>
<svg width="256px" height="182px" viewBox="0 0 256 182" version="1.1" xmlns="http://www.w3.org/2000/svg" xmlns:xlink="http://www.w3.org/1999/xlink" preserveAspectRatio="xMidYMid">
	<g>
		<path d="M44.298,119.344 C47.21,122.936 50.447,126.576 54.01,130.236 C43.638,133.357 36.839,139.152 32.597,144.269 C25.887,152.368 22.335,163.064 23.152,172.244 L5.291,172.244 C8.873,164.471 23.171,142.015 44.298,119.344" fill="#D1A41A"></path>
		<path d="M251.194,177.115 L229.477,177.115 C179.657,151.118 135.918,132.786 89.453,128.781 C89.552,122.315 90.703,114.995 92.917,106.837 L88.637,105.686 C86.364,114.069 85.173,121.656 85.035,128.446 C80.194,128.121 75.323,127.964 70.403,127.964 C66.24,127.964 62.442,128.348 58.979,129.017 C54.462,124.51 50.615,120.2 47.348,116.117 C68.779,93.799 104.076,73.607 134.796,66.011 C143.446,94.763 162.014,114.463 184.547,127.718 C186.2,126.773 187.824,125.789 189.418,124.747 L228.729,167.068 L230.451,166.92 C241.186,165.996 247.287,171.821 248.902,173.631 C250.092,174.95 250.8,176.161 251.194,177.115" fill="#D1A41A"></path>
		<path d="M232.016,35.556 C232.813,74.611 212.887,105.696 184.99,121.637 C137.64,98.051 128.725,38.282 136.794,6.223 C139.037,18.484 143.121,26.169 151.938,29.938 C171.165,24.437 197.625,24.003 217.118,29.377 C225.236,23.473 228.385,14.45 230.107,6.568 C232.252,15.738 232.006,35.556 232.016,35.556" fill="#FFDC76"></path>
		<path d="M168.22,40.776 C169.857,40.776 171.005,41.441 171.835,42.863 C173.78,46.209 173.461,52.809 171.848,59.714 L158.752,59.714 L158.752,62.583 L171.111,62.583 C169.785,67.294 167.922,71.955 165.825,75.648 L165.147,76.842 L181.533,87.156 L172.308,93.235 L173.887,95.632 L184.198,88.834 L195.329,96.098 L196.858,93.67 L186.537,87.285 C186.537,87.285 201.968,77.262 202.735,76.772 C202.73,76.766 202.727,76.76 202.723,76.754 L202.741,76.751 C199.34,71.737 198.262,67.456 199.678,62.583 L200.836,62.583 L213.28,62.569 L213.309,59.714 L200.77,59.714 C203.08,54.278 206.314,49.384 217.858,49.384 L217.858,46.515 C207.207,46.515 200.832,50.744 197.779,59.714 L174.798,59.714 C176.405,52.543 176.684,45.494 174.312,41.419 C172.977,39.123 170.869,37.906 168.22,37.906 C158.727,37.906 154.979,47.607 154.825,48.02 L157.511,49.028 C157.645,48.677 160.74,40.776 168.22,40.776 L168.22,40.776 Z M184.164,85.422 L172.044,77.791 L195.73,77.797 L184.164,85.422 L184.164,85.422 Z M196.759,62.583 C195.74,65.831 196.149,70.724 198.657,74.923 L169.457,74.923 C171.233,71.364 172.88,67.026 174.084,62.583 L196.759,62.583 L196.759,62.583 Z" fill="#000000"></path>
		<path d="M157.512,49.028 L157.511,49.028 L157.51,49.03 L157.512,49.028" fill="#000000"></path>
		<path d="M252.205,170.602 C247.342,165.162 237.816,162.587 229.861,162.778 C224.79,156.742 197.884,128.337 192.452,122.609 C203.683,114.727 213.437,104.487 220.915,92.325 L235.762,92.325 L235.762,89.138 L222.794,89.138 C223.622,87.677 224.411,86.185 225.174,84.673 L235.762,84.673 L235.762,81.485 L226.716,81.485 C233.436,66.972 237.155,50.31 236.794,32.074 C236.807,32.082 236.82,32.088 236.832,32.095 C236.813,27.106 235.26,6.019 232.404,0.213 C224.66,3.156 210.569,12.69 207.38,22.44 C192.096,20.158 174.866,20.428 159.773,23.04 C157.251,12.55 144.595,4.522 135.047,0 C131.02,6.796 129.236,22.553 129.689,33.731 C129.672,33.742 129.654,33.754 129.636,33.766 C130.017,43.865 131.388,53.139 133.595,61.66 C100.575,69.842 64.626,91.473 44.517,112.378 C35.105,99.675 31.371,89.25 30.262,81.35 C28.861,71.373 31.243,62.22 37.149,54.881 C46.396,43.394 59.534,42.585 73.043,44.857 C72.779,46.99 73.059,49.029 73.914,50.291 C77.486,55.567 96.687,57.421 108.148,52.308 C99.69,40.456 82.558,34.669 77.811,36.988 C76.239,37.755 75.052,39.166 74.239,40.811 C69.57,39.976 64.933,39.354 61.543,39.379 C49.629,39.467 40.521,43.63 33.7,52.105 C27.007,60.42 24.302,70.746 25.877,81.966 C27.369,92.593 32.63,103.896 41.449,115.618 C39.984,117.189 38.568,118.741 37.205,120.265 C15.711,144.315 0,170.105 0,174.378 L0,176.592 L28.355,176.592 L27.858,173.967 C26.257,165.504 29.455,154.926 36.005,147.02 C40.117,142.057 46.927,136.392 57.621,133.778 C67.13,143.058 79.244,152.914 92.729,162.422 L113.8,162.422 L113.8,160.208 C113.8,157.71 112.562,155.523 110.312,154.051 C106.983,151.875 101.845,151.575 97.125,153.185 C92.625,148.173 90.102,141.478 89.557,133.163 C135.288,137.213 179.029,155.68 228.385,181.463 L255.541,181.463 L255.897,179.683 C256.404,177.149 255.023,173.754 252.205,170.602 L252.205,170.602 Z M136.793,6.15 C139.04,18.406 143.115,26.092 151.941,29.863 C159.755,27.627 168.77,26.243 178.022,25.732 L185.696,42.563 L190.616,25.586 C199.965,25.889 209.126,27.1 217.112,29.303 C225.235,23.397 228.385,14.376 230.105,6.494 C232.254,15.666 232.006,35.478 232.012,35.482 C232.163,42.88 231.568,49.99 230.318,56.767 L221.553,60.492 L229.277,61.662 C228.663,64.259 227.96,66.806 227.154,69.293 L219.68,71.463 L225.635,73.607 C224.617,76.305 223.497,78.936 222.263,81.485 L209.938,81.485 L209.938,84.673 L220.642,84.673 C219.834,86.192 218.984,87.678 218.102,89.138 L209.938,89.138 L209.938,92.325 L216.097,92.325 C207.994,104.596 197.264,114.547 184.987,121.563 C170.798,114.493 160.064,104.173 152.2,92.325 L156.905,92.325 L156.905,89.138 L150.173,89.138 C149.281,87.669 148.43,86.18 147.62,84.673 L156.905,84.673 L156.905,81.485 L145.975,81.485 C144.093,77.671 142.46,73.764 141.058,69.811 L146.627,68.252 L139.605,65.444 C138.895,63.153 138.258,60.853 137.693,58.552 L148.5,57.815 L136.142,51.258 C133.113,34.557 133.721,18.348 136.793,6.15 L136.793,6.15 Z M32.596,144.195 C25.889,152.29 22.334,162.983 23.148,172.164 L5.286,172.164 C8.875,164.397 23.171,141.944 44.295,119.264 C47.206,122.862 50.448,126.496 54.009,130.16 C43.638,133.278 36.838,139.075 32.596,144.195 L32.596,144.195 Z M229.471,177.035 C179.656,151.042 135.914,132.712 89.45,128.708 C89.551,122.242 90.703,114.923 92.911,106.766 L88.638,105.608 C86.367,113.993 85.171,121.585 85.036,128.371 C80.194,128.05 75.321,127.884 70.406,127.884 C66.237,127.884 62.44,128.271 58.977,128.944 C54.461,124.43 50.613,120.128 47.344,116.045 C53.159,109.987 60.001,104.09 67.488,98.556 L77.856,105.715 L74.471,93.625 C77.623,91.499 80.863,89.444 84.166,87.47 L99.531,95.278 L92.316,82.839 C94.419,81.703 96.539,80.603 98.67,79.543 L120.135,93.941 L113.086,73.053 C120.413,70.1 127.721,67.685 134.789,65.937 C136.45,71.449 138.482,76.62 140.829,81.485 L131.08,81.485 L131.08,84.673 L142.436,84.673 C143.235,86.192 144.061,87.683 144.924,89.138 L131.08,89.138 L131.08,92.325 L146.898,92.325 C156.599,107.383 169.707,118.913 184.543,127.64 C186.194,126.697 187.814,125.696 189.412,124.658 L193.3,128.844 L186.766,138.896 L197.911,133.808 L204.363,140.754 L193.456,149.065 L208.475,145.181 L228.732,166.989 L230.447,166.842 C241.185,165.923 247.288,171.746 248.904,173.553 C250.089,174.878 250.804,176.087 251.193,177.035 L229.471,177.035 L229.471,177.035 Z" fill="#000000"></path>
	</g>
</svg>
